Simply-Cyan-Circles/scalable/apps/distributor-logo-manjaro.svg

<svg xmlns="http://www.w3.org/2000/svg" width="48" height="48" viewBox="0 0 12.7 12.7"><path d="M6.34.07a6.29 6.29 0 0 0-6.29 6.3 6.29 6.29 0 0 0 6.3 6.28 6.29 6.29 0 0 0 6.28-6.29A6.29 6.29 0 0 0 6.34.07zM6.32 1l.01.01a5.4 5.4 0 0 1 5.4 5.4 5.4 5.4 0 0 1-5.4 5.41 5.4 5.4 0 0 1-5.41-5.4A5.4 5.4 0 0 1 6.32 1zm-2.9 1.87a.36.36 0 0 0-.36.37v2.38h1.83V4.7h2.38V2.87H3.42zm4.4 0v6.59c0 .2.16.37.36.37h1.1c.2 0 .36-.17.36-.37V3.24c0-.2-.16-.37-.36-.37H7.8zM5.42 5.25v4.21c0 .2.17.37.37.37h1.1c.2 0 .37-.17.37-.37v-4.2H5.43zm-2.37.92v3.29c0 .2.16.37.36.37h1.1c.2 0 .37-.17.37-.37v-3.3H3.06z" fill="#5beedc"/></svg>

<?xml version="1.0" encoding="UTF-8" standalone="no"?>
<svg
   xmlns:dc="http://purl.org/dc/elements/1.1/"
   xmlns:cc="http://creativecommons.org/ns#"
   xmlns:rdf="http://www.w3.org/1999/02/22-rdf-syntax-ns#"
   xmlns:svg="http://www.w3.org/2000/svg"
   xmlns="http://www.w3.org/2000/svg"
   xmlns:sodipodi="http://sodipodi.sourceforge.net/DTD/sodipodi-0.dtd"
   xmlns:inkscape="http://www.inkscape.org/namespaces/inkscape"
   width="48"
   height="48"
   viewBox="0 0 12.7 12.7"
   version="1.1"
   id="svg4"
   sodipodi:docname="distributor-logo-manjaro.svg"
   inkscape:version="0.92.4 (5da689c313, 2019-01-14)">
  <metadata
     id="metadata10">
    <rdf:RDF>
      <cc:Work
         rdf:about="">
        <dc:format>image/svg+xml</dc:format>
        <dc:type
           rdf:resource="http://purl.org/dc/dcmitype/StillImage" />
        <dc:title></dc:title>
      </cc:Work>
    </rdf:RDF>
  </metadata>
  <defs
     id="defs8" />
  <sodipodi:namedview
     pagecolor="#ffffff"
     bordercolor="#666666"
     borderopacity="1"
     objecttolerance="10"
     gridtolerance="10"
     guidetolerance="10"
     inkscape:pageopacity="0"
     inkscape:pageshadow="2"
     inkscape:window-width="1087"
     inkscape:window-height="480"
     id="namedview6"
     showgrid="false"
     inkscape:zoom="4.9166667"
     inkscape:cx="2.1355932"
     inkscape:cy="24"
     inkscape:window-x="0"
     inkscape:window-y="25"
     inkscape:window-maximized="0"
     inkscape:current-layer="svg4" />
  <path
     d="M 6.34,0.07 A 6.29,6.29 0 0 0 0.05,6.37 6.29,6.29 0 0 0 6.35,12.65 6.29,6.29 0 0 0 12.63,6.36 6.29,6.29 0 0 0 6.34,0.07 Z M 6.32,1 6.33,1.01 a 5.4,5.4 0 0 1 5.4,5.4 5.4,5.4 0 0 1 -5.4,5.41 A 5.4,5.4 0 0 1 0.92,6.42 5.4,5.4 0 0 1 6.32,1 Z M 3.42,2.87 A 0.36,0.36 0 0 0 3.06,3.24 V 5.62 H 4.89 V 4.7 H 7.27 V 2.87 Z m 4.4,0 v 6.59 c 0,0.2 0.16,0.37 0.36,0.37 h 1.1 c 0.2,0 0.36,-0.17 0.36,-0.37 V 3.24 C 9.64,3.04 9.48,2.87 9.28,2.87 H 7.8 Z m -2.4,2.38 v 4.21 c 0,0.2 0.17,0.37 0.37,0.37 h 1.1 c 0.2,0 0.37,-0.17 0.37,-0.37 V 5.26 H 5.43 Z M 3.05,6.17 v 3.29 c 0,0.2 0.16,0.37 0.36,0.37 h 1.1 c 0.2,0 0.37,-0.17 0.37,-0.37 V 6.16 H 3.06 Z"
     id="path2"
     inkscape:connector-curvature="0"
     style="fill:#5beedc" />
</svg>
